src/assets/camera.svg

<?xml version="1.0" encoding="UTF-8" standalone="no"?><!DOCTYPE svg PUBLIC "-//W3C//DTD SVG 1.1//EN" "http://www.w3.org/Graphics/SVG/1.1/DTD/svg11.dtd"><svg width="100%" height="100%" viewBox="0 0 1024 1024" version="1.1" xmlns="http://www.w3.org/2000/svg" xmlns:xlink="http://www.w3.org/1999/xlink" xml:space="preserve" xmlns:serif="http://www.serif.com/" style="fill-rule:evenodd;clip-rule:evenodd;stroke-linejoin:round;stroke-miterlimit:2;"><path d="M626.15,241.894c27.284,-71.158 96.287,-121.74 177.01,-121.74c104.591,0 189.506,84.915 189.506,189.506c0,64.031 -31.825,120.687 -80.513,155.004c46.452,13.207 80.513,55.977 80.513,106.639l0,221.695c0,61.179 -49.669,110.848 -110.848,110.848l-521.996,-0c-60.022,-0 -108.966,-47.81 -110.794,-107.388l-198.371,98.809c-4.143,2.063 -9.058,1.836 -12.993,-0.6c-3.936,-2.436 -6.33,-6.735 -6.33,-11.363l-0,-402.246c-0,-4.641 2.401,-8.952 6.348,-11.395c3.946,-2.443 8.876,-2.671 13.03,-0.601l198.316,98.781c1.595,-51.971 39.04,-94.986 88.411,-105.123c-47.155,-34.486 -77.806,-90.222 -77.806,-153.06c0,-104.591 84.915,-189.506 189.506,-189.506c80.724,0 149.726,50.582 177.011,121.74Zm-0,135.532c-12.712,33.152 -34.479,61.839 -62.277,83.029l124.553,-0c-27.791,-21.187 -49.56,-49.874 -62.276,-83.029Z"/></svg>

<?xml version="1.0" encoding="UTF-8" standalone="no"?>
<!DOCTYPE svg PUBLIC "-//W3C//DTD SVG 1.1//EN" "http://www.w3.org/Graphics/SVG/1.1/DTD/svg11.dtd">
<svg width="100%" height="100%" viewBox="0 0 1024 1024" version="1.1" xmlns="http://www.w3.org/2000/svg" xmlns:xlink="http://www.w3.org/1999/xlink" xml:space="preserve" xmlns:serif="http://www.serif.com/" style="fill-rule:evenodd;clip-rule:evenodd;stroke-linejoin:round;stroke-miterlimit:2;">
    <path d="M626.15,241.894C653.434,170.736 722.437,120.154 803.16,120.154C907.751,120.154 992.666,205.069 992.666,309.66C992.666,373.691 960.841,430.347 912.153,464.664C958.605,477.871 992.666,520.641 992.666,571.303L992.666,792.998C992.666,854.177 942.997,903.846 881.818,903.846L359.822,903.846C299.8,903.846 250.856,856.036 249.028,796.458L50.657,895.267C46.514,897.33 41.599,897.103 37.664,894.667C33.728,892.231 31.334,887.932 31.334,883.304L31.334,481.058C31.334,476.417 33.735,472.106 37.682,469.663C41.628,467.22 46.558,466.992 50.712,469.062L249.028,567.843C250.623,515.872 288.068,472.857 337.439,462.72C290.284,428.234 259.633,372.498 259.633,309.66C259.633,205.069 344.548,120.154 449.139,120.154C529.863,120.154 598.865,170.736 626.15,241.894ZM626.15,377.426C613.438,410.578 591.671,439.265 563.873,460.455L688.426,460.455C660.635,439.268 638.866,410.581 626.15,377.426Z"/>
</svg>
